X: 13
T: Harvest Home, The
Z: tziguk
S: https://thesession.org/tunes/49#setting53495
R: hornpipe
M: 4/4
L: 1/8
K: Dmaj
|:AF|DAFA DAFA|defe dcBA|eAfA gAfA|(3efe (3dcB (3ABA (3GFE|
DAFA DAFA|defe dcBA|eAfA gece|d2 dcd2:|
|:cd|eAAA fAAA|gAfA eAAA|eAfA gAfA|(3efe (3dcB (3ABA (3GFE|
DAFA DAFA|defe dcBA|eAfA gfec|d2 dcd2:|

%-------------------- TUNE SEPARATOR --------------------%

